_assets/images/icon-youtube.svg

<svg fill="none" height="24" viewBox="0 0 36 24" width="36" xmlns="http://www.w3.org/2000/svg"><path clip-rule="evenodd" d="m31.3389.716747c1.4662.394383 2.6207 1.556443 3.0125 3.032143.7121 2.67454.7121 8.25501.7121 8.25501s0 5.5802-.7121 8.2552c-.3918 1.4755-1.5463 2.6375-3.0125 3.0321-2.6573.7165-13.3131.7165-13.3131.7165s-10.65577 0-13.31308-.7165c-1.46602-.3946-2.62071-1.5566-3.01258-3.0321-.712103-2.675-.712103-8.2552-.712103-8.2552s0-5.58047.712103-8.25501c.39187-1.4757 1.54656-2.63776 3.01258-3.032143 2.65731-.716747 13.31308-.716747 13.31308-.716747s10.6558 0 13.3131.716747zm-7.8917 11.287553-8.9061 5.0664v-10.1332z" fill="#fff" fill-rule="evenodd"/></svg>

<svg width="36" height="24" viewBox="0 0 36 24" fill="none" xmlns="http://www.w3.org/2000/svg">
<path fill-rule="evenodd" clip-rule="evenodd" d="M31.3389 0.716747C32.8051 1.11113 33.9596 2.27319 34.3514 3.74889C35.0635 6.42343 35.0635 12.0039 35.0635 12.0039C35.0635 12.0039 35.0635 17.5841 34.3514 20.2591C33.9596 21.7346 32.8051 22.8966 31.3389 23.2912C28.6816 24.0077 18.0258 24.0077 18.0258 24.0077C18.0258 24.0077 7.37003 24.0077 4.71272 23.2912C3.2467 22.8966 2.09201 21.7346 1.70014 20.2591C0.988037 17.5841 0.988037 12.0039 0.988037 12.0039C0.988037 12.0039 0.988037 6.42343 1.70014 3.74889C2.09201 2.27319 3.2467 1.11113 4.71272 0.716747C7.37003 0 18.0258 0 18.0258 0C18.0258 0 28.6816 0 31.3389 0.716747ZM23.4472 12.0043L14.5411 17.0707V6.9375L23.4472 12.0043Z" fill="white"/>
</svg>
